X: 250
%
U:~=!turn!
T: Inverey's Rant
C:
O:Scotland
B:Keith Norman MacDonald : "The Skye collection of the best reels & strathspeys extant" : 1887
Z:Ralph Palmer
R:Reel
M:C|
L:1/8
K:A Mix
B | A/2A/2A e>d (Tc>BA=c) | B>gd>g TB>AGB | A/2A/2A (e>d) Tc>de>g | Tf>dB>e c>A A :|
g | f>ae>f c>de>g | (Tfd)gd B>cd>g | f>ae>f c>de>(g | f>d)B>e cAA>f |
f>ae>f c>de>(g | f>d)g>d B>cd>e | c>de>a ^g>ae>(=g | f>d)Be Tc>A A |]


